X:3587
T:Ayre
C:Jeremiah Clarke
Z:Transcribed by Frank Nordberg - http://www.musicaviva.com
F:http://abc.musicaviva.com/tunes/clarke-jeremiah/clarke-ayre.abc
V:1 Program 1 6 %Harpsichord
V:2 Program 1 6 bass up %Harpsichord
V:3 Program 1 6 bass merge down %Harpsichord
M:C
L:1/8
K:C
V:1
GAB|:c2G2A2GF|E2C2 z Bcd|e2de Adcd|B2G2 z GAB|
V:2
zz2|:C6z2|z8|z8|z8|
V:3
zz2|:z2E,2F,2G,2|C,4C,,4|C,4F,2D,2|G,4G,,2F,2|
%
V:1
c2G_B Acde|f2Ad =Bdef|gBcdd4|[1c4 z GAB:|[2c4 z edc||
V:2
z2C2z4|D,4G,2F,2|E,2A,2G,4|[1z GE2 z4:|[2z GE2 z4||
V:3
E,4F,2E,2|z2D,,2z4|z4z2G,,2|[1C,3G,,C,,4:|[2C,3G,,C,,2D,2||
%
V:1
|:B2c2AcDA|^G2B2Eedc|BcBcc2BA|A4 z AGF|E2G2cedc|
V:2
|:z4F,4|z8|z4A,2G,2|zEC2z4|z8|
V:3
|:E,2A,,2z2D,2|E,2D,2C,2[D,2A,2]|[E,2^G,2][A,,2A,2]E,4|A,3G,A,,2B,,2|C,4E,,2F,,2|
%
V:1
B2d2gagf|egcdd4|[1c4 z edc:|[2c4 z|]
V:2
z8|z8|[1z GE2 z4:|[2z GE2 z|]
V:3
G,,6B,,2|C,,2E,F,G,2G,,2|[1C,3G,,C,,2D,2:|[2C,3G,, C,,|]
W:
W:
W:  From Musica Viva - http://www.musicaviva.com
W:  the Internet center for free sheet music downloads.
